!!!!SEGMENT: pl-kozmzk--mzk-m-33_szymanowska-maria--le-depart-romance.krn
!!!cenid: 18xx:2735
!!!COM: Szymanowska, Maria
!!!COM-rism: pe140138
!!!CDT: 1789/12/14-1831/07/25
!!!CNT: Polish
!!!OTL: Le Départ Romance
!!!PDT:
!!!AGN: Secular
!!!SMS-siglum: PL-KOZmzk
!!!SMS-shelfmark: mzk/m/33
!!!NIFC-rismID: 1001119899
!!!URL-scan: https://repozytorium.nifc.pl/islandora/object/pl-kozmzk%3A6878/datastream/PDF/view
!!!ONB-nifc: UWAGA: str. 59-62
!!!SMS-variant:
!!!SMS-altvar:
!!!OMD:Risoluto ed agitato
**kern	**kern	**dynam	**kern	**text	**dynam
*part3	*part2	*part2	*part1	*part1	*part1
*staff3	*staff2	*	*staff1	*staff1	*
*I"Pianoforte.	*I"Pianoforte.	*	*I"Chant.	*	*
*clefF4	*clefG2	*	*clefG2	*	*
*k[]	*k[]	*	*k[]	*	*
*M4/4	*M4/4	*	*M4/4	*	*
*met(c)	*met(c)	*	*met(c)	*	*
=1	=1	=1	=1	=1	=1
4B\ 4G#X\ 4F\ 4D\	4r	f	1r	.	.
4r	32r	.	.	.	.
.	(<32G#X/LLL	.	.	.	.
.	32B/	.	.	.	.
.	32d/JJJ	.	.	.	.
.	32f/LLL	.	.	.	.
.	32g#X/	.	.	.	.
.	32b/	.	.	.	.
.	32dd/JJJ	.	.	.	.
2r	16ff^\LL)	.	.	.	.
.	16ee\	.	.	.	.
.	16dd\	.	.	.	.
.	16cc\JJ	.	.	.	.
.	8bt\L	.	.	.	.
.	16cc\L	.	.	.	.
.	16a\JJ	.	.	.	.
=2	=2	=2	=2	=2	=2
4B\ 4G#X\ 4F\ 4D\	4g#X/	sf	1r	.	.
4r	32r	.	.	.	.
.	(<32G#X/LLL	.	.	.	.
.	32B/	.	.	.	.
.	32d/JJJ	.	.	.	.
.	32f/LLL	.	.	.	.
.	32g#/	.	.	.	.
.	32b/	.	.	.	.
.	32dd/JJJ	.	.	.	.
2r	16ff^\LL)	.	.	.	.
.	16ee\	.	.	.	.
.	16dd\	.	.	.	.
.	16cc\JJ	.	.	.	.
.	16b\LL	.	.	.	.
.	16dd\	.	.	.	.
.	16cc\	.	.	.	.
.	16a\JJ	.	.	.	.
=3	=3	=3	=3	=3	=3
[2B\ [2G#X\ [>2F\ [>2D\	[4g#X\	.	1r	.	.
.	(32g#\LLL]	.	.	.	.
.	32b\	<	.	.	.
.	32dd\	.	.	.	.
.	32ff\JJJ	.	.	.	.
.	32gg#X\LLL	.	.	.	.
.	32bb\	.	.	.	.
.	32ddd\	.	.	.	.
.	32fff\JJJ)	.	.	.	.
*	*8va	*	*	*	*
8B\] 8G#\] 8F\] 8D\]	8gg#X\	[	.	.	.
8r	8r	.	.	.	.
8c\ 8C\	8aaa\ 8eee\ 8aa\	.	.	.	.
8r	8r	.	.	.	.
*	*X8va	*	*	*	*
!!LO:LB:g=original
=4	=4	=4	=4	=4	=4
!	!LO:TX:a:t=loco	!	!	!	!
4D/ 4DD/	4bb\ 4aa\ 4ff\	.	2ryy	.	.
4r	4r	.	.	.	.
!	!	!LO:DY:rj	!	!	!
4E/ 4EE/	4eee\ 4gg#X\ 4ee\	f	4r	.	.
8r;	8r;	.	8r;	.	.
8r	8r	.	8e/	Tu	.
=5	=5	=5	=5	=5	=5
*^	*	*	*	*	*
4.G#X/	2EE\	8r	.	4.ee^\	fuis	.
.	.	(32e/LLL	.	.	.	.
.	.	32g#X/	.	.	.	.
.	.	32b/	.	.	.	.
.	.	32dd#X/JJJ)	.	.	.	.
.	.	4ee\ 4e^\	.	.	.	.
8BB/	.	.	.	8ee\	cru-	.
4.G#/	2EE\	8r	.	(8ee\L	-el,	.
.	.	(32e/LLL	.	8dd\J)	.	.
.	.	32g#/	.	.	.	.
.	.	32b/	.	.	.	.
.	.	32dd#/JJJ)	.	.	.	.
.	.	4ee\ 4e^\	.	8cc\	et	.
8BB/	.	.	.	8b\	j'ex-	.
=6	=6	=6	=6	=6	=6	=6
4.A/	2EE\	8r	.	4dd^\	-pi-	.
.	.	(32e/LLL	.	.	.	.
.	.	32a/	.	.	.	.
.	.	32cc/	.	.	.	.
.	.	32dd#X/JJJ)	.	.	.	.
.	.	4ee\ 4e^\	.	4cc\	-re	.
8E/	.	.	.	.	.	.
4.A/	2EE\	8r	.	4r	.	.
.	.	(32e/LLL	.	.	.	.
.	.	32a/	.	.	.	.
.	.	32cc/	.	.	.	.
.	.	32dd#/JJJ)	.	.	.	.
.	.	4ee\ 4e^\	.	4a/	par-	.
8E/	.	.	.	.	.	.
!!LO:LB:g=original
=7	=7	=7	=7	=7	=7	=7
4.A/	2EE\	8r	.	2cc/	-donne	.
.	.	32c/LLL	.	.	.	.
.	.	32e/	.	.	.	.
.	.	32a/	.	.	.	.
.	.	32b/JJJ	.	.	.	.
.	.	4cc/ 4c/	.	.	.	.
8E/	.	.	.	.	.	.
4.A/	2EE\	8r	.	8cc/	à	.
.	.	32c/LLL	.	8cc/	ma	.
.	.	32e/	.	.	.	.
.	.	32a/	.	.	.	.
.	.	32b/JJJ	.	.	.	.
.	.	4cc/ 4c/	.	8b/	fai-	.
8E/	.	.	.	8a/	-ble	.
=8	=8	=8	=8	=8	=8	=8
4.G#X/	2EE\	8r	<	2b/	voix	.
.	.	32B/LLL	.	.	.	.
.	.	32e/	.	.	.	.
.	.	32g#X/	.	.	.	.
.	.	32a#X/JJJ	.	.	.	.
.	.	4b/ 4B/	.	.	.	.
8E/	.	.	.	.	.	.
4.G#/	2EE\	8r	.	4r	.	.
.	.	32B/LLL	.	.	.	.
.	.	32e/	.	.	.	.
.	.	32g#/	.	.	.	.
.	.	32a#/JJJ	.	.	.	.
.	.	4b/ 4B/	[[	4g#X/	d'o-	.
8E/	.	.	.	.	.	.
=9	=9	=9	=9	=9	=9	=9
4.D#X/	2EE\	8r	.	4.f#X/	-ser	.
.	.	32A/LLL	.	.	.	.
.	.	32c/	.	.	.	.
.	.	32d#X/	.	.	.	.
.	.	32f#X/JJJ	.	.	.	.
.	.	4a/ 4A/	.	.	.	.
8C/	.	.	.	8f#/	en-	.
4.D#/	2EE\	8r	.	4a/	-cor-	.
.	.	32A/LLL	.	.	.	.
.	.	32c/	.	.	.	.
.	.	32d#/	.	.	.	.
.	.	32f#/JJJ	.	.	.	.
.	.	4a/ 4A/	.	8g#X/	-te	.
8C/	.	.	.	8f#/	re-	.
!!LO:LB:g=original
=10	=10	=10	=10	=10	=10	=10
4.E/	2EE\	8r	<	4g#X/	-di-	.
.	.	32G#X/LLL	.	.	.	.
.	.	32B/	.	.	.	.
.	.	32e/	.	.	.	.
.	.	32f#X/JJJ	.	.	.	.
.	.	4g#X/ 4G#/	.	4e/	-re	.
8BB/	.	.	.	.	.	.
4.E/	2EE\	8r	.	8r	.	.
.	.	32G#/LLL	.	8e/	ce qu'	.
.	.	32B/	.	.	.	.
.	.	32e/	.	.	.	.
.	.	32f#/JJJ	.	.	.	.
.	.	4g#/ 4G#/	[	8e/	elle	.
8BB/	.	.	.	8e/	a	.
=11	=11	=11	=11	=11	=11	=11
4.D#X/	2EE\	8r	p	2d#X/	dit	.
.	.	32F#X/LLL	>	.	.	.
.	.	32A/	.	.	.	.
.	.	32c/	.	.	.	.
.	.	32c##X/JJJ	.	.	.	.
.	.	4d#X/ 4A/	]	.	.	.
8C/	.	.	.	.	.	.
4.D#/	2EE\	8r	.	4.d#/	tant	.
.	.	32F#/LLL	.	.	.	.
.	.	32A/	.	.	.	.
.	.	32cn/	.	.	.	.
.	.	32c##X/JJJ	.	.	.	.
.	.	4d#/ 4A/	.	.	.	.
8C/	.	.	.	8d#/	de	.
=12	=12	=12	=12	=12	=12	=12
4.E/	2EE\	8r	<	2e/	fois,	.
.	.	32G#X/LLL	.	.	.	.
.	.	32B/	.	.	.	.
.	.	32e/	.	.	.	.
.	.	32f#X/JJJ	.	.	.	.
.	.	4g#X/ 4G#/	.	.	.	.
8BB/	.	.	.	.	.	.
4.E/	2EE\	8r	.	4r	.	.
.	.	32B/LLL	.	.	.	.
.	.	32e/	.	.	.	.
.	.	32g#/	.	.	.	.
.	.	32a#X/JJJ	.	.	.	.
.	.	4b/ 4B/	.	4e/	ras-	.
8BB/	.	.	[[	.	.	.
!!LO:PB:g=original
=13	=13	=13	=13	=13	=13	=13
4.G#X/	2EE\	8r	f	2ee^\	-su-	.
.	.	32d/LLL	.	.	.	.
.	.	32g#X/	.	.	.	.
.	.	32b/	.	.	.	.
.	.	32dd#X/JJJ	.	.	.	.
.	.	4ee\ 4e\	.	.	.	.
8BB/	.	.	.	.	.	.
4.G#/	2EE\	8r	.	8ee\	-re	.
.	.	32d/LLL	.	8dd\	ton	.
.	.	32g#/	.	.	.	.
.	.	32b/	.	.	.	.
.	.	32dd#/JJJ	.	.	.	.
.	.	4ee\ 4e\	.	8cc\	ame	.
8BB/	.	.	.	8b\	é-	.
=14	=14	=14	=14	=14	=14	=14
4.F/	2FF\	8r	rf	4dd^\	-mu-	.
.	.	32A/LLL	.	.	.	.
.	.	32c/	.	.	.	.
.	.	32f/	.	.	.	.
.	.	32g#X/JJJ	.	.	.	.
.	.	4a/ 4A/	.	4cc\	-e	.
8C/	.	.	.	.	.	.
4.F/	2FF\	8r	.	4r	.	.
.	.	32A/LLL	.	.	.	.
.	.	32c/	.	.	.	.
.	.	32f/	.	.	.	.
.	.	32g#/JJJ	.	.	.	.
.	.	4a/ 4A/	.	4cc\	re-	.
8C/	.	.	.	.	.	.
=15	=15	=15	=15	=15	=15	=15
4.F/	2FF\	8r	.	4.dd\	-gar-	.
.	.	32B-X/LLL	.	.	.	.
.	.	32d/	.	.	.	.
.	.	32f/	.	.	.	.
.	.	32a/JJJ	.	.	.	.
.	.	4b-X/ 4B-/	.	.	.	.
8D/	.	.	.	8b-X\	-de	.
4.F/	2FF\	8r	.	4ff^\	moi	.
.	.	32B-/LLL	.	.	.	.
.	.	32d/	.	.	.	.
.	.	32f/	.	.	.	.
.	.	32a/JJJ	.	.	.	.
.	.	4b-/ 4B-/	.	8ee\	sans	.
8D/	.	.	.	8dd\	fré-	.
=16	=16	=16	=16	=16	=16	=16
.	.	.	.	8qqdd/	.	.
4.F/	2FF\	8r	.	2cc\	-mir	.
.	.	32A/LLL	.	.	.	.
.	.	32c/	.	.	.	.
.	.	32f/	.	.	.	.
.	.	32g#X/JJJ	.	.	.	.
.	.	4a/ 4A/	.	.	.	.
8C/	.	.	.	.	.	.
4.F/	2FF\	8r	.	4r	.	.
.	.	32A/LLL	.	.	.	.
.	.	32c/	.	.	.	.
.	.	32f/	.	.	.	.
.	.	32g#/JJJ	.	.	.	.
.	.	4a/ 4A/	.	4a/	on	.
8C/	.	.	.	.	.	.
!!LO:LB:g=original
=17	=17	=17	=17	=17	=17	=17
4.E/	2FF\	8r	p	4g/	doit	.
.	.	32G/LLL	.	.	.	.
.	.	32B-X/	.	.	.	.
.	.	32d-X/	.	.	.	.
.	.	32e/JJJ	.	.	.	.
.	.	4g/ 4G/	.	8g/	sup-	.
8D-X/	.	.	.	8g/	-por-	.
4.E/	2FF\	8r	.	(4b-X\	-ter	.
.	.	32G/LLL	.	.	.	.
.	.	32B-/	.	.	.	.
.	.	32d-/	.	.	.	.
.	.	32e/JJJ	.	.	.	.
.	.	4g/ 4G/	.	8a/)	.	.
8D-X/	.	.	.	8g/	la	.
=18	=18	=18	=18	=18	=18	=18
4.F/	2FF\	8r	.	4a/	vu-	.
.	.	32A/LLL	.	.	.	.
.	.	32c/	.	.	.	.
.	.	32f/	.	.	.	.
.	.	32g#X/JJJ	.	.	.	.
.	.	4a/ 4A/	.	4f/	-e	.
8C/	.	.	.	.	.	.
4.F/	2FF\	8r	.	4r	.	.
.	.	32A/LLL	.	.	.	.
.	.	32c/	.	.	.	.
.	.	32f/	.	.	.	.
.	.	32g#/JJJ	.	.	.	.
.	.	4a/ 4A/	.	4f/	de	.
8C/	.	.	.	.	.	.
=19	=19	=19	=19	=19	=19	=19
4.D-X/	2FF\	8r	.	4e/	ceux	.
.	.	32G/LLL	pp	.	.	.
.	.	32B-X/	.	.	.	.
.	.	32d-X/	.	.	.	.
.	.	32e/JJJ	.	.	.	.
.	.	4g/ 4G/	.	8e/	que	.
8C/	.	.	.	8e/	l'on	.
4.D-/	2FF\	8r	.	4.e/	fait	.
.	.	32G/LLL	.	.	.	.
.	.	32B-/	.	.	.	.
.	.	32d-/	.	.	.	.
.	.	32e/JJJ	.	.	.	.
.	.	4g/ 4G/	.	.	.	.
8C/	.	.	.	8e/	mou-	.
=20	=20	=20	=20	=20	=20	=20
4.F/	2FF\	8r	.	2f/	-rir	.
.	.	32A/LLL	.	.	.	.
.	.	32c/	.	.	.	.
.	.	32f/	.	.	.	.
.	.	32g#X/JJJ	.	.	.	.
.	.	4a/ 4A/	.	.	.	.
8C/	.	.	.	.	.	.
4.E/	2EE\	8r	.	2r	.	.
.	.	32A/LLL	.	.	.	.
.	.	32c/	.	.	.	.
.	.	32e/	.	.	.	.
.	.	32g#/JJJ	.	.	.	.
.	.	4a/ 4A/	<	.	.	.
8C/	.	.	.	.	.	.
!!LO:LB:g=original
=21	=21	=21	=21	=21	=21	=21
!	!	!LO:TX:b:t=cres_cen_do:ext2=ud:problem:dynamics with extension lines	!LO:HP:t=cres_cen_do	!	!	!
4.D#X/	2DD#X\	8r	<	2a/	on	.
.	.	32A/LLL	.	.	.	.
.	.	32c/	.	.	.	.
.	.	32f#X/	.	.	.	.
.	.	32g#X/JJJ	.	.	.	.
.	.	4a/ 4A/	.	.	.	.
8C/	.	.	.	.	.	.
4.E/	2EE\	8r	.	2a/	doit	.
.	.	32A/LLL	.	.	.	.
.	.	32c/	.	.	.	.
.	.	32e/	.	.	.	.
.	.	32g#/JJJ	.	.	.	.
.	.	4a/ 4A/	.	.	.	.
8C/	.	.	.	.	.	.
=22	=22	=22	=22	=22	=22	=22
4.F/	2FF\	8r	.	4.a/	sup-	.
.	.	32A/LLL	.	.	.	.
.	.	32c/	[	.	.	.
.	.	32d#X/	.	.	.	.
.	.	32g#X/JJJ	.	.	.	.
.	.	4a/ 4A/	.	.	.	.
8C/	.	.	.	8a/	-por-	.
4.E/	2EE\	8r	f	4.ee^\	-ter	.
.	.	32e/LLL	.	.	.	.
.	.	32g#X/	.	.	.	.
.	.	32b/	.	.	.	.
.	.	32dd#X/JJJ	.	.	.	.
.	.	4ee\ 4e\	.	.	.	.
8G#X\	.	.	.	8dd\	la	.
=23	=23	=23	=23	=23	=23	=23
4.A/	2AA\	8r	.	4dd\	vu-	.
.	.	32c/LLL	.	.	.	.
.	.	32e/	.	.	.	.
.	.	32a/	.	.	.	.
.	.	32b/JJJ	.	.	.	.
.	.	4cc/ 4c/	.	4cc\	-e	.
8E/	.	.	.	.	.	.
4.D/	2DD\	8r	.	4r	.	.
.	.	32B-X/LLL	.	.	.	.
.	.	32d/	.	.	.	.
.	.	32f/	.	.	.	.
.	.	32a/JJJ	.	.	.	.
.	.	4b-X/ 4B-/	.	4b-X/	de	.
8BB-X/	.	.	.	.	.	.
=24	=24	=24	=24	=24	=24	=24
4.E/	2EE\	8r	.	2a\	ceux	.
.	.	32A/LLL	.	.	.	.
.	.	32c/	.	.	.	.
.	.	32e/	.	.	.	.
.	.	32g#X/JJJ	.	.	.	.
.	.	4a/ 4A/	.	.	.	.
8C/	.	.	.	.	.	.
!	!	!LO:TX:i:b:t=manc	!	!	!	!
4.E/	2EE\	8r	.	8cc/	que	.
.	.	32B/LLL	.	8bn/	l'on	.
.	.	32d/	.	.	.	.
.	.	32e/	.	.	.	.
.	.	32f##X/JJJ	.	.	.	.
.	.	4g#X/ 4B/	.	8a/	fait	.
8BB/	.	.	.	8g#X/	mou-	.
!!LO:LB:g=original
=25	=25	=25	=25	=25	=25	=25
4.A^/	2AA\	8r	.	2a/	-rir.	.
.	.	32e/LLL	.	.	.	.
.	.	32a/	.	.	.	.
.	.	32cc/	.	.	.	.
.	.	32dd#X/JJJ	.	.	.	.
.	.	4ee\ 4e\	.	.	.	.
8E/	.	.	.	.	.	.
4.G#X/	2EE\	8r	.	2r	.	.
.	.	32e/LLL	.	.	.	.
.	.	32g#X/	.	.	.	.
.	.	32b/	.	.	.	.
.	.	32dd#/JJJ	.	.	.	.
.	.	4ee\ 4e\	.	.	.	.
8E/	.	.	.	.	.	.
=26	=26	=26	=26	=26	=26	=26
4.A^/	2AA\	8r	.	1r	.	.
.	.	32e/LLL	.	.	.	.
.	.	32a/	.	.	.	.
.	.	32cc/	.	.	.	.
.	.	32dd#X/JJJ	.	.	.	.
.	.	4ee\ 4e\	.	.	.	.
8E/	.	.	.	.	.	.
4.G#X^/	2EE\	8r	.	.	.	.
.	.	32e/LLL	.	.	.	.
.	.	32g#X/	.	.	.	.
.	.	32b/	.	.	.	.
.	.	32dd#/JJJ	.	.	.	.
.	.	4ee\ 4e\	.	.	.	.
8E/	.	.	.	.	.	.
=27	=27	=27	=27	=27	=27	=27
4.G#X/	2EE\	8r	.	1r	.	.
.	.	32B/LLL	.	.	.	.
!	!	!LO:TX:b:t=per_den_dosi:dur=2qes:ext2=ud:problem:text with extension lines	!	!	!	!
.	.	32e/	.	.	.	.
.	.	32g#X/	.	.	.	.
.	.	32a#X/JJJ	.	.	.	.
.	.	4b/ 4B/	.	.	.	.
8BB/	.	.	.	.	.	.
4.E/	2EE\	8r	.	.	.	.
.	.	32G#X/LLL	.	.	.	.
.	.	32B/	.	.	.	.
.	.	32e/	.	.	.	.
.	.	32f#X/JJJ	.	.	.	.
.	.	4g#X/ 4G#/	.	.	.	.
8BB/	.	.	.	.	.	.
*v	*v	*	*	*	*	*
=28	=28	=28	=28	=28	=28
!!!OMD:Molto agitato
!	!	!	!LO:TX:b:t=2me Couplet	!	!
2.E\ 2.EE;;\	2.e/ 2.B/ 2.G#X;/	.	2r	.	.
.	.	.	4r;	.	.
4r	4r	.	8e/	Je	.
.	.	.	8e/	t'ai-	.
!!LO:PB:g=original
=29	=29	=29	=29	=29	=29
8qqEE/	.	.	.	.	.
4G#X^\	8r	.	[2ee^\	-mai	.
.	32e/LLL	.	.	.	.
.	32g#X/	.	.	.	.
.	32b/	.	.	.	.
.	32dd#X/JJJ	.	.	.	.
8r	8ee\ 8e\	.	.	.	.
8BB/	8r	.	.	.	.
8qqEE/	.	.	.	.	.
4G#X\	8r	.	8ee\]	.	.
.	32e/LLL	.	8dd\	sans	.
.	32g#/	.	.	.	.
.	32b/	.	.	.	.
.	32dd#/JJJ	.	.	.	.
8r	8ee\ 8e\	.	8cc\	être	.
8BB/	8r	.	8b\	ai-	.
=30	=30	=30	=30	=30	=30
8qqEE/	.	.	.	.	.
4A\	8r	.	4dd\	-mé	.
.	32e/LLL	.	.	.	.
.	32a/	.	.	.	.
.	32cc/	.	.	.	.
.	32dd#X/JJJ	.	.	.	.
8r	8ee\ 8e\	.	4cc\	e	.
8E/	8r	.	.	.	.
8qqEE/	.	.	.	.	.
4A\	8r	.	4r	.	.
.	32e/LLL	.	.	.	.
.	32a/	.	.	.	.
.	32cc/	.	.	.	.
.	32dd#/JJJ	.	.	.	.
8r	8ee\ 8e\	.	4a/	ja-	.
8E/	8r	.	.	.	.
=31	=31	=31	=31	=31	=31
8qqEE/	.	.	.	.	.
4A\	8r	.	2cc\	-mais	.
.	32c/LLL	.	.	.	.
.	32e/	.	.	.	.
.	32a/	.	.	.	.
.	32b/JJJ	.	.	.	.
8r	8cc\ 8c\	.	.	.	.
8E\	8r	.	.	.	.
8qqEE/	.	.	.	.	.
4A\	8r	.	8cc/	je	.
.	32c/LLL	.	8cc/	n'en	.
.	32e/	.	.	.	.
.	32a/	.	.	.	.
.	32b/JJJ	.	.	.	.
8r	8cc\ 8c\	.	8b/	eus	.
8E\	8r	.	8a/	l'es-	.
=32	=32	=32	=32	=32	=32
8qqEE/	.	.	.	.	.
4G#X\	8r	.	2b\	-poir	.
.	32B/LLL	.	.	.	.
.	32e/	.	.	.	.
.	32g#X/	.	.	.	.
.	32a#X/JJJ	.	.	.	.
8r	8b/ 8B/	.	.	.	.
8E\	8r	.	.	.	.
8qqEE/	.	.	.	.	.
4G#\	8r	.	2r	.	.
.	32B/LLL	.	.	.	.
.	32e/	.	.	.	.
.	32g#/	.	.	.	.
.	32a#/JJJ	.	.	.	.
8r	8b/ 8B/	.	.	.	.
8E\	8r	.	.	.	.
!!LO:LB:g=original
=33	=33	=33	=33	=33	=33
8qqEE/	.	.	.	.	.
4D#X/	8r	rf	4f#X/	mais	.
.	32A/LLL	.	.	.	.
.	32c/	.	.	.	.
.	32d#X/	.	.	.	.
.	32f#X/JJJ	.	.	.	.
8r	8a/ 8A/	.	8f#/	à	.
8C/	8r	.	8f#/	mon	.
8qqEE/	.	.	.	.	.
4D#/	8r	.	4a/	a	.
.	32A/LLL	.	.	.	.
.	32c/	.	.	.	.
.	32d#/	.	.	.	.
.	32f#/JJJ	.	.	.	.
8r	8a/ 8A/	.	8g#X/	me	.
8C/	8r	.	8f#X/	char-	.
=34	=34	=34	=34	=34	=34
8qqEE/	.	.	.	.	.
4E\	8r	.	4g#X/	-mé-	.
.	32G#X/LLL	.	.	.	.
.	32B/	.	.	.	.
.	32e/	.	.	.	.
.	32f#X/JJJ	.	.	.	.
8r	8g#X/ 8G#/	.	4e/	-e,	.
8BB/	8r	.	.	.	.
8qqEE/	.	.	.	.	.
4E/	8r	.	8r	.	.
.	32G#/LLL	.	8e/	il	.
.	32B/	.	.	.	.
.	32e/	.	.	.	.
.	32f#/JJJ	.	.	.	.
8r	8g#/ 8G#/	.	8e/	suf-	.
8BB/	8r	.	8e/	-fi-	.
=35	=35	=35	=35	=35	=35
8qqEE/	.	.	.	.	.
!	!	!LO:DY:rj	!	!	!
4D#X/	8r	rf	2d#X/	-soit	.
.	32F#X/LLL	.	.	.	.
.	32A/	.	.	.	.
.	32c/	.	.	.	.
.	32c##X/JJJ	.	.	.	.
8r	8d#X/ 8F#/	.	.	.	.
8C/	8r	.	.	.	.
8qqEE/	.	.	.	.	.
4D#/	8r	.	4.d#/	de	.
.	32F#/LLL	.	.	.	.
.	32A/	.	.	.	.
.	32cn/	.	.	.	.
.	32c##X/JJJ	.	.	.	.
8r	8d#X/ 8F#/	.	.	.	.
8C/	8r	.	8d#/	te	.
=36	=36	=36	=36	=36	=36
8qqEE/	.	.	.	.	.
4E/	8r	.	2e/	voir	.
.	32G#X/LLL	.	.	.	.
.	32B/	.	.	.	.
.	32e/	.	.	.	.
.	32f#X/JJJ	.	.	.	.
8r	8g#X/ 8G#/	.	.	.	.
8BB/	8r	.	.	.	.
8qqEE/	.	.	.	.	.
4E/	8r	.	4r	.	.
.	32B/LLL	.	.	.	.
.	32e/	.	.	.	.
.	32g#/	.	.	.	.
.	32a#X/JJJ	.	.	.	.
8r	8b/ 8B/	.	4e/	hé-	.
8BB/	8r	.	.	.	.
!!LO:LB:g=original
=37	=37	=37	=37	=37	=37
8qqEE/	.	.	.	.	.
!	!	!	!	!	!LO:DY:b:rj
4G#X/	8r	.	(4.ff^\	-las	f
.	32d/LLL	.	.	.	.
.	32g#X/	.	.	.	.
.	32b/	.	.	.	.
.	32dd#X/JJJ	.	.	.	.
8r	8ee\ 8e\	.	.	.	.
8BB/	8r	.	8ee\)	.	.
8qqEE/	.	.	.	.	.
4G#\	8r	.	8ee\	ta	.
.	32d/LLL	.	8dd\	seu-	.
.	32g#/	.	.	.	.
.	32b/	.	.	.	.
.	32dd#/JJJ	.	.	.	.
8r	8ee\ 8e\	.	8cc\	-le	.
8BB/	8r	.	8b\	pré-	.
=38	=38	=38	=38	=38	=38
8qqFF/	.	.	.	.	.
4F/	8r	rf	4dd\	-sen-	.
.	32A/LLL	.	.	.	.
.	32c/	.	.	.	.
.	32f/	.	.	.	.
.	32g#X/JJJ	.	.	.	.
8r	8a/ 8A/	.	4cc\	-ce	.
8C/	8r	.	.	.	.
8qqFF/	.	.	.	.	.
4F/	8r	.	4r	.	.
.	32A/LLL	.	.	.	.
.	32c/	.	.	.	.
.	32f/	.	.	.	.
.	32g#/JJJ	.	.	.	.
8r	8a/ 8A/	.	8cc\	su-	.
8C/	8r	.	8cc\	-spen-	.
=39	=39	=39	=39	=39	=39
8qqFF/	.	.	.	.	.
4F/	8r	.	(4.dd\	-doit	.
.	32B-X/LLL	.	.	.	.
.	32d/	.	.	.	.
.	32f/	.	.	.	.
.	32a/JJJ	.	.	.	.
8r	8b-X/ 8B-/	.	.	.	.
8D\	8r	.	8b-X\)	.	.
8qqFF/	.	.	.	.	.
4F/	8r	.	4ff^\	tous	.
.	32B-/LLL	.	.	.	.
.	32d/	.	.	.	.
.	32f/	.	.	.	.
.	32a/JJJ	.	.	.	.
8r	8b-/ 8B-/	.	8ee\	mes	.
8D/	8r	.	8dd\	tour-	.
=40	=40	=40	=40	=40	=40
8qqFF/	.	.	.	.	.
4F/	8r	.	2cc\	-mens	.
.	32A/LLL	.	.	.	.
.	32c/	.	.	.	.
.	32f/	.	.	.	.
.	32g#X/JJJ	.	.	.	.
8r	8a/ 8A/	.	.	.	.
8C/	8r	.	.	.	.
8qqFF/	.	.	.	.	.
4F/	8r	.	2r	.	.
.	32A/LLL	.	.	.	.
.	32c/	.	.	.	.
.	32f/	.	.	.	.
.	32g#/JJJ	.	.	.	.
8r	8a/ 8A/	.	.	.	.
8C/	8r	.	.	.	.
!!LO:LB:g=original
=41	=41	=41	=41	=41	=41
8qqFF/	.	.	.	.	.
4E^\	8r	p	4g/	je	.
.	32G/LLL	.	.	.	.
.	32B-X/	.	.	.	.
.	32d-X/	.	.	.	.
.	32e/JJJ	.	.	.	.
8r	8g/ 8G/	.	8g/	ne	.
8D-X/	8r	.	8g/	com-	.
8qqFF/	.	.	.	.	.
4E^\	8r	.	4b-X/	-ptois	.
.	32G/LLL	.	.	.	.
.	32B-/	.	.	.	.
.	32d-/	.	.	.	.
.	32e/JJJ	.	.	.	.
8r	8g/ 8G/	.	8a/	d'ex-	.
8D-/	8r	.	8g/	-is-	.
=42	=42	=42	=42	=42	=42
8qqFF/	.	.	.	.	.
!	!	!	!LO:SIC:v:l:s=-ten-	!	!
4F\	8r	.	4a/	-sten-	.
.	32A/LLL	.	.	.	.
.	32c/	.	.	.	.
.	32f/	.	.	.	.
.	32g#X/JJJ	.	.	.	.
8r	8a/ 8A/	.	4f/	-ce	.
8C/	8r	.	.	.	.
8qqFF/	.	.	.	.	.
4F\	8r	.	4r	.	.
.	32A/LLL	.	.	.	.
.	32c/	.	.	.	.
.	32f/	.	.	.	.
.	32g#/JJJ	.	.	.	.
8r	8a/ 8A/	.	4f/	que	.
8C/	8r	.	.	.	.
=43	=43	=43	=43	=43	=43
!	!LO:TX:b:t=ac_ce_le_ran_do:dur=4q:ext2=u:problem:text with extension lines	!	!	!	!
8qqFF/	.	.	.	.	.
4D-X^\	8r	.	2e/	ces	.
.	32G/LLL	.	.	.	.
.	32B-X/	.	.	.	.
.	32d/	.	.	.	.
.	32e-X/JJJ	.	.	.	.
8r	8g/ 8G/	.	.	.	.
8C/	8r	.	.	.	.
8qqFF/	.	.	.	.	.
4D-^\	8r	.	8e/	ra-	.
.	32G/LLL	.	8e/	-pi-	.
.	32B-/	.	.	.	.
.	32d/	.	.	.	.
.	32e-/JJJ	.	.	.	.
8r	8g/ 8G/	.	8e/	-des	.
8C/	8r	.	8e/	mo-	.
!!LO:PB:g=original
=44	=44	=44	=44	=44	=44
8qqFF/	.	.	.	.	.
4F/	8r	.	2f/	-ments	.
.	32A/LLL	.	.	.	.
.	32c/	.	.	.	.
.	32f/	.	.	.	.
.	32g#X/JJJ	.	.	.	.
8r	8a/ 8A/	.	.	.	.
8C/	8r	.	.	.	.
8qqEE/	.	.	.	.	.
4E/	8r	.	2r	.	.
.	32A/LLL	.	.	.	.
.	32c/	.	.	.	.
.	32e/	.	.	.	.
.	32g#/JJJ	.	.	.	.
8r	8a/ 8A/	.	.	.	.
8C/	8r	.	.	.	.
=45	=45	=45	=45	=45	=45
8qqDD#X/	.	.	.	.	.
4D#X\	8r	.	2a/	je	.
.	32A/LLL	.	.	.	.
.	32c/	.	.	.	.
.	32f#X/	.	.	.	.
.	32g#X/JJJ	.	.	.	.
8r	8a/ 8A/	.	.	.	.
8C/	8r	.	.	.	.
8qqEE/	.	.	.	.	.
4E/	8r	.	4.a/	ne	.
.	32A/LLL	.	.	.	.
.	32c/	.	.	.	.
.	32e/	.	.	.	.
.	32g#/JJJ	.	.	.	.
8r	8a/ 8A/	.	.	.	.
8C/	8r	.	8a/	com-	.
=46	=46	=46	=46	=46	=46
8qqFF/	.	.	.	.	.
4F/	8r	.	2a/	-ptois	.
.	32A/LLL	.	.	.	.
.	32c/	.	.	.	.
.	32d#X/	.	.	.	.
.	32g#X/JJJ	.	.	.	.
8r	8a/ 8A/	.	.	.	.
8C/	8r	.	.	.	.
8qqEE/	.	.	.	.	.
4E/	8r	.	4.ee^\	d'ex-	.
.	32e/LLL	.	.	.	.
.	32g#/	.	.	.	.
.	32b/	.	.	.	.
.	32dd#X/JJJ	.	.	.	.
8r	8ee\ 8e\	.	.	.	.
8G#X\	8r	.	8dd\	-is-	.
=47	=47	=47	=47	=47	=47
8qqAA/	.	.	.	.	.
4A/	8r	.	4dd\	-ten-	.
.	32c/LLL	.	.	.	.
.	32e/	.	.	.	.
.	32a/	.	.	.	.
.	32b/JJJ	.	.	.	.
8r	8cc\ 8c\	.	4cc\	-ce	.
8E/	8r	.	.	.	.
8qqDD/	.	.	.	.	.
4D/	8r	.	4r	.	.
.	32B-X/LLL	.	.	.	.
.	32d/	.	.	.	.
.	32f/	.	.	.	.
.	32a/JJJ	.	.	.	.
8r	8b-X/ 8B-/	.	4b-X/	que	.
8BB-X/	8r	.	.	.	.
!!LO:LB:g=original
=48	=48	=48	=48	=48	=48
8qqEE/	.	.	.	.	.
4E/	8r	.	2a/	ces	.
.	32A/LLL	.	.	.	.
.	32c/	.	.	.	.
.	32e/	.	.	.	.
.	32g#X/JJJ	.	.	.	.
8r	8a/ 8A/	.	.	.	.
8C/	8r	.	.	.	.
8qqEE/	.	.	.	.	.
4E/	8r	.	8.cc/	ra-	.
.	32Bn/LLL	.	.	.	.
.	32d/	.	.	.	.
.	32e/	.	16bn/	-pi-	.
.	32f##X/JJJ	.	.	.	.
8r	8g#/ 8B/	.	8a/	-des	.
8BB/	8r	.	8g#X/	mo-	.
=49	=49	=49	=49	=49	=49
8qqAA/	.	.	.	.	.
4A^\	8r	.	2a/	-ments.	.
.	32e/LLL	.	.	.	.
.	32a/	.	.	.	.
.	32cc/	.	.	.	.
.	32dd#X/JJJ	.	.	.	.
8r	8ee\ 8e\	.	.	.	.
8E/	8r	.	.	.	.
8qqEE/	.	.	.	.	.
4G#X\	8r	.	2r	.	.
.	32e/LLL	.	.	.	.
.	32g#X/	.	.	.	.
.	32b/	.	.	.	.
.	32dd#X/JJJ	.	.	.	.
8r	8ee\ 8e\	.	.	.	.
8E/	8r	.	.	.	.
=50	=50	=50	=50	=50	=50
8qqAA/	.	.	.	.	.
4A/	8r	.	1r	.	.
.	32e/LLL	.	.	.	.
.	32a/	.	.	.	.
.	32cc/	.	.	.	.
.	32dd#X/JJJ	.	.	.	.
8r	8ee\ 8e\	.	.	.	.
8E/	8r	.	.	.	.
8qqEE/	.	.	.	.	.
4G#X\	8r	.	.	.	.
.	32e/LLL	.	.	.	.
.	32g#X/	.	.	.	.
.	32b/	.	.	.	.
.	32dd#X/JJJ	.	.	.	.
8r	8ee\ 8e\	.	.	.	.
8E/	8r	.	.	.	.
!!LO:LB:g=original
=51	=51	=51	=51	=51	=51
8qqEE/	.	.	.	.	.
!	!LO:TX:b:t=di_mi_nuen-do:ext2=u:problem:dynamics with extension lines	!LO:HP:t=di_mi_nuen-do	!	!	!
4G#X/	8r	>	1r	.	.
.	32B/LLL	.	.	.	.
.	32e/	.	.	.	.
.	32g#X/	.	.	.	.
.	32a#X/JJJ	.	.	.	.
8r	8b/ 8B/	.	.	.	.
8BB/	8r	.	.	.	.
8qqEE/	.	.	.	.	.
!	!	!	!LO:TX:b:t=3me Couplet	!	!
4E/	8r	.	.	.	.
.	32G#X/LLL	.	.	.	.
.	32B/	.	.	.	.
.	32e/	.	.	.	.
.	32f#X/JJJ	.	.	.	.
8r	8g#/ 8G#/	.	.	.	.
8BB/	8r	]]	.	.	.
=52	=52	=52	=52	=52	=52
!LO:N:vis=2	!	!	!	!	!
2.E\ 2.EE;<\	2.e/ 2.B/ 2.G#X;/	.	2r	.	.
.	.	.	4r	.	.
!	!	!	!LO:TX:a:i:t=Più lento ed espressivo	!	!
4r	4r	.	4e/	Re-	.
=53	=53	=53	=53	=53	=53
*^	*	*	*	*	*
4.G#X/	2EE\	8r	.	4ee\	-çois	.
.	.	(32e/LLL	.	.	.	.
.	.	32g#X/	.	.	.	.
.	.	32b/	.	.	.	.
.	.	32dd#X/JJJ)	.	.	.	.
.	.	4ee\ 4e\	.	4dd\	du	.
8BB/	.	.	.	.	.	.
4.G#/	2EE\	8r	.	(8cc\L	moins	.
.	.	(32e/LLL	.	8b\J)	.	.
.	.	32g#/	.	.	.	.
.	.	32b/	.	.	.	.
.	.	32dd#/JJJ)	.	.	.	.
.	.	4ee\ 4e\	.	8ee^\	sans	.
8BB/	.	.	.	8dd\	co-	.
=54	=54	=54	=54	=54	=54	=54
4.A/	2EE\	8r	.	4dd\	-lé-	.
.	.	32e/LLL	.	.	.	.
.	.	32a/	.	.	.	.
.	.	32cc/	.	.	.	.
.	.	32dd#X/JJJ	.	.	.	.
.	.	4ee\ 4e\	.	4cc\	-re	.
8E\	.	.	.	.	.	.
4.A/	2EE\	8r	.	4r	.	.
.	.	32e/LLL	.	.	.	.
.	.	32a/	.	.	.	.
.	.	32cc/	.	.	.	.
.	.	32dd#X/JJJ	.	.	.	.
.	.	4ee\ 4e\	.	8a/	les	.
8E/	.	.	.	8a/	a-	.
!!LO:LB:g=original
=55	=55	=55	=55	=55	=55	=55
4.A/	2EE\	8r	.	[>2cc/	-dieux	.
.	.	32c/LLL	.	.	.	.
.	.	32e/	.	.	.	.
.	.	32a/	.	.	.	.
.	.	32b/JJJ	.	.	.	.
.	.	4cc/ 4c/	.	.	.	.
8E/	.	.	.	.	.	.
4.A/	2EE\	8r	.	8cc/]	.	.
.	.	32c/LLL	.	8cc/	de	.
.	.	32e/	.	.	.	.
.	.	32a/	.	.	.	.
.	.	32b/JJJ	.	.	.	.
.	.	4cc/ 4c/	.	8b/	l'a-	.
8E/	.	.	.	8a/	-mi-	.
=56	=56	=56	=56	=56	=56	=56
4.G#X/	2EE\	8r	.	2b/	-tié	.
!	!	!LO:SIC:v:s=32G#/LLL	!	!	!	!
.	.	32G/LLL	.	.	.	.
.	.	32e/	.	.	.	.
.	.	32g#X/	.	.	.	.
.	.	32a#X/JJJ	.	.	.	.
.	.	4b/ 4B/	.	.	.	.
8E/	.	.	.	.	.	.
4.G#/	2EE\	8r	.	2r	.	.
.	.	32B/LLL	.	.	.	.
.	.	32e/	.	.	.	.
.	.	32g#/	.	.	.	.
.	.	32a#/JJJ	.	.	.	.
.	.	4b/ 4B/	.	.	.	.
8E/	.	.	.	.	.	.
=57	=57	=57	=57	=57	=57	=57
!	!	!LO:TX:b:i:t=trem	!	!	!	!
32C/LLL	[4EE\	32f#X/LLL 32d#X/ 32c/	.	8.f#X/	trem-	.
32D#X/	.	32A/	.	.	.	.
32C/	.	32f#/ 32d#/ 32c/	.	.	.	.
32D#/	.	32A/	.	.	.	.
32C/	.	32f#/ 32d#/ 32c/	.	.	.	.
32D#/	.	32A/	.	.	.	.
32C/	.	32f#/ 32d#/ 32c/	.	16f#/	-ble	.
32D#/JJJ	.	32A/JJJ	.	.	.	.
8C/	8EE\]	8f#/ 8d#/ 8c/	.	4f#/	tu	.
8r	8r	8r	.	.	.	.
32C/LLL	[4EE\	32f#/LLL 32d#/ 32c/	rf	4a/	que	.
32D#X/	.	32A/	.	.	.	.
32C/	.	32f#/ 32d#/ 32c/	.	.	.	.
32D#/	.	32A/	.	.	.	.
32C/	.	32f#/ 32d#/ 32c/	.	.	.	.
32D#/	.	32A/	.	.	.	.
32C/	.	32f#/ 32d#/ 32c/	.	.	.	.
32D#/JJJ	.	32A/JJJ	.	.	.	.
8C/	8EE\]	8f#/ 8d#/ 8c/	.	8g#X/	ma	.
8r	8r	8r	.	8f#X/	mi-	.
!!LO:PB:g=original
=58	=58	=58	=58	=58	=58	=58
32BB/LLL	[4EE\	32g#X/LLL 32B/	rf	4g#X/	-se-	.
32E/	.	32G#X/	.	.	.	.
32BB/	.	32g#/ 32B/	.	.	.	.
32E/	.	32G#/	.	.	.	.
32BB/	.	32g#/ 32B/	.	.	.	.
32E/	.	32G#/	.	.	.	.
32BB/	.	32g#/ 32B/	.	.	.	.
32E/JJJ	.	32G#/JJJ	.	.	.	.
8BB/	8EE\]	8g#/ 8B/	.	4e/	-ré	.
8r	8r	8r	.	.	.	.
32BB/LLL	[4EE\	32e/LLL 32B/	rf	4r	.	.
32E/	.	32G#X/	.	.	.	.
32BB/	.	32e/ 32B/	.	.	.	.
32E/	.	32G#/	.	.	.	.
32BB/	.	32e/ 32B/	.	.	.	.
32E/	.	32G#/	.	.	.	.
32BB/	.	32e/ 32B/	.	.	.	.
32E/JJJ	.	32G#/JJJ	.	.	.	.
8BB/	8EE\]	8e/ 8B/	.	4e/	t'ins-	.
8r	8ryy	8r	.	.	.	.
=59	=59	=59	=59	=59	=59	=59
32C/LLL	[4EE\	32d#X/LLL 32c/	rf	4.d#X/	-pi-	.
32D#X/	.	32A/	.	.	.	.
32C/	.	32d#/ 32c/	.	.	.	.
32D#/	.	32A/	.	.	.	.
32C/	.	32d#/ 32c/	.	.	.	.
32D#/	.	32A/	.	.	.	.
32C/	.	32d#/ 32c/	.	.	.	.
32D#/JJJ	.	32A/JJJ	.	.	.	.
8C/	8EE\]	8d#/ 8c/	.	.	.	.
8r	8r	8r	.	8d#/	-re	.
32C/LLL	[4EE\	32d#/LLL 32c/	rf	4d#/	de	.
32D#/	.	32A/	.	.	.	.
32C/	.	32d#/ 32c/	.	.	.	.
32D#/	.	32A/	.	.	.	.
32C/	.	32d#/ 32c/	.	.	.	.
32D#/	.	32A/	.	.	.	.
32C/	.	32d#/ 32c/	.	.	.	.
32D#/JJJ	.	32A/JJJ	.	.	.	.
!	!	!LO:TX:a:i:t=rit	!	!	!	!
8C/	8EE\]	8d#/ 8c/	.	8d#/	la	.
8r	8r	8r	.	8d#/	pi-	.
*v	*v	*	*	*	*	*
=60	=60	=60	=60	=60	=60
2.E\ 2.EE;\	2.e/ 2.B/ 2.G#X;/	.	2e;/	-tié.	.
.	.	.	4r	.	.
4r	4r	.	4e/	Non,	.
!!LO:LB:g=original
=61	=61	=61	=61	=61	=61
*^	*	*	*	*	*
!	!	!LO:TX:b:i:t=a tempo	!	!	!	!
4.G#X/	2EE\	8r	.	2ee^\	non,	.
.	.	32d/LLL	.	.	.	.
.	.	32g#X/	.	.	.	.
.	.	32b/	.	.	.	.
.	.	32dd#X/JJJ	.	.	.	.
.	.	4ee\ 4e\	.	.	.	.
8BB/	.	.	.	.	.	.
4.G#/	2EE\	8r	.	8ee\	tu	.
.	.	32d/LLL	.	8dd\	n'as	.
.	.	32g#/	.	.	.	.
.	.	32b/	.	.	.	.
.	.	32dd#/JJJ	.	.	.	.
.	.	4ee\ 4e\	.	8cc\	rien	.
8BB/	.	.	.	8b\	à	.
=62	=62	=62	=62	=62	=62	=62
!LO:N:vis=8.	!	!	!	!	!	!
4.F/	2FF\	8r	.	4dd\	crain-	.
.	.	32A/LLL	.	.	.	.
.	.	32c/	.	.	.	.
.	.	32f/	.	.	.	.
.	.	32g#X/JJJ	.	.	.	.
.	.	4a/ 4A/	.	4cc\	-dre	.
8C/	.	.	.	.	.	.
4.F/	2FF\	8r	.	8r	.	.
.	.	32A/LLL	.	8cc\	en	.
.	.	32c/	.	.	.	.
.	.	32f/	.	.	.	.
.	.	32g#/JJJ	.	.	.	.
.	.	4a/ 4A/	.	8cc\	m'ac-	.
8C/	.	.	.	8cc\	-cor-	.
=63	=63	=63	=63	=63	=63	=63
4.F/	2FF\	8r	.	(4.dd\	-dant	.
.	.	32B-X/LLL	.	.	.	.
.	.	32d/	.	.	.	.
.	.	32f/	.	.	.	.
.	.	32a/JJJ	.	.	.	.
.	.	4b-X/ 4B-/	.	.	.	.
8D/	.	.	.	8b-X/)	.	.
4.F/	2FF\	8r	.	(4ff\	un-	.
.	.	32B-/LLL	.	.	.	.
.	.	32d/	.	.	.	.
.	.	32f/	.	.	.	.
.	.	32a/JJJ	.	.	.	.
.	.	4b-/ 4B-/	.	8ee\)	.	.
8D/	.	.	.	8dd\	-re-	.
!!LO:LB:g=original
=64	=64	=64	=64	=64	=64	=64
.	.	.	.	8qqdd/	.	.
4.F/	2FF\	8r	.	2cc\	-gard	.
.	.	32A/LLL	.	.	.	.
.	.	32c/	.	.	.	.
.	.	32f/	.	.	.	.
.	.	32g#X/JJJ	.	.	.	.
.	.	4a/ 4A/	.	.	.	.
8C/	.	.	.	.	.	.
4.F/	2FF\	8r	.	2r	.	.
.	.	32A/LLL	.	.	.	.
.	.	32c/	.	.	.	.
.	.	32f/	.	.	.	.
.	.	32g#/JJJ	.	.	.	.
.	.	4a/ 4A/	.	.	.	.
8C/	.	.	.	.	.	.
=65	=65	=65	=65	=65	=65	=65
4.E/	2FF\	8r	.	4g/	va,	.
.	.	32G/LLL	.	.	.	.
.	.	32B-X/	.	.	.	.
.	.	32d-X/	.	.	.	.
.	.	32e/JJJ	.	.	.	.
.	.	4g/ 4G/	.	8g/	je	.
8D-X/	.	.	.	8g/	ne	.
4.E/	2FF\	8r	.	4b-X\	suis	.
.	.	32G/LLL	.	.	.	.
.	.	32B-/	.	.	.	.
.	.	32d-/	.	.	.	.
.	.	32e/JJJ	.	.	.	.
.	.	4g/ 4G/	.	8a/	point	.
8D-X/	.	.	.	8g/	à	.
=66	=66	=66	=66	=66	=66	=66
4.F/	2FF\	8r	.	4a/	plain-	.
.	.	32A/LLL	.	.	.	.
.	.	32c/	.	.	.	.
.	.	32f/	.	.	.	.
.	.	32g#X/JJJ	.	.	.	.
.	.	4a/ 4A/	.	4f/	-dre	.
8C/	.	.	.	.	.	.
4.F/	2FF\	8r	.	4r	.	.
.	.	32A/LLL	.	.	.	.
.	.	32c/	.	.	.	.
.	.	32f/	.	.	.	.
.	.	32g#/JJJ	.	.	.	.
.	.	4a/ 4A/	.	4f/	je	.
8C/	.	.	.	.	.	.
!!LO:LB:g=original
=67	=67	=67	=67	=67	=67	=67
!	!	!	!LO:DY:rj	!	!	!
4.D-X/	2FF\	8r	pp	2e/	meurs	.
.	.	32G/LLL	.	.	.	.
.	.	32B-X/	.	.	.	.
.	.	32d-X/	.	.	.	.
.	.	32e/JJJ	.	.	.	.
.	.	4g/ 4G/	.	.	.	.
8C/	.	.	.	.	.	.
4.D-/	2FF\	8r	.	8e/	a-	.
.	.	32G/LLL	.	8e/	-vant	.
.	.	32B-/	.	.	.	.
.	.	32d-/	.	.	.	.
.	.	32e/JJJ	.	.	.	.
.	.	4g/ 4G/	.	8e/	ton	.
8C/	.	.	.	8e/	de-	.
=68	=68	=68	=68	=68	=68	=68
4.F/	2FF\	8r	.	2f/	-part	.
.	.	32A/LLL	.	.	.	.
.	.	32c/	.	.	.	.
.	.	32f/	.	.	.	.
.	.	32g#X/JJJ	.	.	.	.
.	.	4a/ 4A/	.	.	.	.
8C/	.	.	.	.	.	.
4.E/	2EE\	8r	.	2r	.	.
.	.	32A/LLL	.	.	.	.
.	.	32c/	.	.	.	.
.	.	32e/	.	.	.	.
.	.	32g#/JJJ	.	.	.	.
.	.	4a/ 4A/	.	.	.	.
8C/	.	.	.	.	.	.
=69	=69	=69	=69	=69	=69	=69
4.D#X/	2DD#X\	8r	.	2a/	va	.
.	.	32A/LLL	.	.	.	.
.	.	32c/	.	.	.	.
.	.	32f#X/	<	.	.	.
.	.	32g#X/JJJ	.	.	.	.
.	.	4a/ 4A/	.	.	.	.
8C/	.	.	.	.	.	.
4.E/	2EE\	8r	.	4.a/	je	.
.	.	32A/LLL	.	.	.	.
.	.	32c/	.	.	.	.
.	.	32e/	.	.	.	.
.	.	32g#/JJJ	.	.	.	.
.	.	4a/ 4A/	[[	.	.	.
8C/	.	.	.	8a/	ne	.
!!LO:PB:g=original
=70	=70	=70	=70	=70	=70	=70
4.F/	2FF\	8r	.	2a/	suis	.
.	.	32A/LLL	.	.	.	.
.	.	32c/	.	.	.	.
.	.	32d#X/	.	.	.	.
.	.	32g#X/JJJ	.	.	.	.
.	.	4a/ 4A/	.	.	.	.
8C/	.	.	.	.	.	.
4.E/	2EE\	8r	.	4.ee\	point	.
.	.	32e/LLL	.	.	.	.
.	.	32g#X/	.	.	.	.
.	.	32b/	.	.	.	.
.	.	32dd#X/JJJ	.	.	.	.
!	!	!	!LO:DY:rj	!	!	!
.	.	4ee\ 4e\	rf	.	.	.
8G#X/	.	.	.	8dd\	à	.
=71	=71	=71	=71	=71	=71	=71
4.A/	2AA\	8r	.	4dd\	plain-	.
.	.	32c/LLL	.	.	.	.
.	.	32e/	.	.	.	.
.	.	32a/	.	.	.	.
.	.	32b/JJJ	.	.	.	.
.	.	4cc/ 4c/	.	4cc\	-dre	.
8E/	.	.	.	.	.	.
4.D/	2DD\	8r	.	4r	.	.
.	.	32B-X/LLL	.	.	.	.
.	.	32d/	.	.	.	.
.	.	32f/	.	.	.	.
.	.	32a/JJJ	.	.	.	.
!	!	!LO:TX:b:t=mo_ren_do:dur=4q:ext2=u:problem:text with extension lines	!	!	!	!
.	.	4b-X/ 4B-/	.	4b-X/	je	.
8BB-X/	.	.	.	.	.	.
=72	=72	=72	=72	=72	=72	=72
!	!LO:N:vis=1	!	!	!	!	!
4.E/	2EE\	8r	.	2a/	meurs	.
.	.	32A/LLL	.	.	.	.
.	.	32c/	.	.	.	.
.	.	32e/	.	.	.	.
.	.	32g#X/JJJ	.	.	.	.
.	.	4a/ 4A/	.	.	.	.
8C/	.	.	.	.	.	.
4.E/	2EE\	8r	.	8cc\	a-	.
.	.	32B/LLL	.	8b\	-vant	.
.	.	32d/	.	.	.	.
.	.	32e/	.	.	.	.
.	.	32f##X/JJJ	.	.	.	.
.	.	4g#X/ 4B/	.	8a/	ton	.
8BB/	.	.	.	8g#X/	de-	.
!!LO:LB:g=original
=73	=73	=73	=73	=73	=73	=73
4.A^/	2AA\	8r	p	2a/	-part.	.
.	.	32e/LLL	.	.	.	.
.	.	32a/	.	.	.	.
.	.	32cc/	.	.	.	.
.	.	32dd#X/JJJ	.	.	.	.
.	.	4ee\ 4e\	.	.	.	.
8E/	.	.	.	.	.	.
4.G#X^/	2EE\	8r	.	2r	.	.
.	.	32e/LLL	.	.	.	.
.	.	32g#X/	.	.	.	.
.	.	32b/	.	.	.	.
.	.	32dd#/JJJ	.	.	.	.
.	.	4ee\ 4e\	.	.	.	.
8E/	.	.	.	.	.	.
=74	=74	=74	=74	=74	=74	=74
4.A/	2AA\	8r	.	1r	.	.
.	.	32e/LLL	.	.	.	.
.	.	32a/	.	.	.	.
.	.	32cc/	.	.	.	.
.	.	32dd#X/JJJ	.	.	.	.
.	.	4ee\ 4e\	.	.	.	.
8E/	.	.	.	.	.	.
4.G#X/	2EE\	8r	.	.	.	.
.	.	32e/LLL	.	.	.	.
.	.	32g#X/	.	.	.	.
.	.	32b/	.	.	.	.
.	.	32dd#/JJJ	.	.	.	.
.	.	4ee\ 4e\	.	.	.	.
8E/	.	.	.	.	.	.
=75	=75	=75	=75	=75	=75	=75
4.G#X/	2EE\	8r	.	1r	.	.
.	.	32B/LLL	.	.	.	.
.	.	32e/	.	.	.	.
.	.	32g#X/	.	.	.	.
.	.	32a#X/JJJ	.	.	.	.
.	.	4b/ 4B/	.	.	.	.
8BB/	.	.	.	.	.	.
4.E/	2EE\	8r	.	.	.	.
.	.	32G#X/LLL	.	.	.	.
.	.	32B/	.	.	.	.
.	.	32e/	.	.	.	.
.	.	32f#X/JJJ	.	.	.	.
.	.	4g#/ 4G#/	.	.	.	.
8BB/	.	.	.	.	.	.
*v	*v	*	*	*	*	*
!!LO:LB:g=original
=76	=76	=76	=76	=76	=76
2.E\ 2.EE;\	2.e/ 2.B/ 2.G#X;/	.	1r;	.	.
4r	4r	.	.	.	.
=77	=77	=77	=77	=77	=77
!	!LO:TX:a:i:t=più presto.	!	!	!	!
4B\ 4G#X\ 4F\ 4D\	4r	.	1r	.	.
4r	32r	.	.	.	.
!	!	!LO:DY:rj	!	!	!
.	(32G/LLL	f	.	.	.
.	32B/	.	.	.	.
.	32d/JJJ)	.	.	.	.
.	(<32f/LLL	.	.	.	.
.	32g#X/	.	.	.	.
.	32b/	.	.	.	.
.	32dd/JJJ	.	.	.	.
2r	16ff^\LL)	.	.	.	.
.	16ee\	.	.	.	.
.	16dd\	.	.	.	.
.	16cc\JJ	.	.	.	.
.	8bt\L	.	.	.	.
.	16cc\L	.	.	.	.
.	16a\JJ	.	.	.	.
=78	=78	=78	=78	=78	=78
4B\ 4G#X\ 4F\ 4D\	4g#X/	rf	1r	.	.
4r	32r	.	.	.	.
.	(32G#X/LLL	.	.	.	.
.	32B/	.	.	.	.
.	32d/JJJ)	.	.	.	.
.	(<32f/LLL	.	.	.	.
.	32g#X/	.	.	.	.
.	32b/	.	.	.	.
.	32dd/JJJ)	.	.	.	.
2r	16ff\LL	.	.	.	.
.	16ee\	.	.	.	.
.	16dd\	.	.	.	.
.	16cc\JJ	.	.	.	.
.	16b\LL	.	.	.	.
.	16dd\	.	.	.	.
.	16cc\	.	.	.	.
.	16a\JJ	.	.	.	.
!!LO:LB:g=original
=79	=79	=79	=79	=79	=79
[2B\ [2G#X\ [>2F\ [>2D\	[4g#X\	.	1r	.	.
.	(32g#\LLL]	.	.	.	.
.	32b\	.	.	.	.
.	32dd\	.	.	.	.
.	32ff\JJJ	.	.	.	.
.	32gg#X\LLL	.	.	.	.
.	32bb\	.	.	.	.
.	32ddd\	.	.	.	.
.	32fff\JJJ)	.	.	.	.
*	*8va	*	*	*	*
8B\] 8G#\] 8F\] 8D\]	8ggg#X\	.	.	.	.
8r	8r	.	.	.	.
8c\ 8C\	8aaa\ 8eee\ 8aa\	.	.	.	.
8r	8r	.	.	.	.
*	*X8va	*	*	*	*
=80	=80	=80	=80	=80	=80
!	!LO:TX:a:t=loco	!	!	!	!
4D/ 4DD/	4bb\ 4aa\ 4ff\	f	1r	.	.
4r	4r	.	.	.	.
4E/ 4EE/	4eee\ 4gg#X\ 4ee\	.	.	.	.
4r	4r	.	.	.	.
=81	=81	=81	=81	=81	=81
8qqAA\ 8qqAAA\	8qqA</ 8qqE</ 8qqC</	ff	.	.	.
1AA/ 1AAA/	1A</ 1E</ 1C</;	.	1r;	.	.
==	==	==	==	==	==
*-	*-	*-	*-	*-	*-
!!!system-decoration: s1{s2,s3}
!!!ENC: Krzysztof Stępień
!!!END: 2021-07-27
!!!RDF**dynam: < = cres
!!!RDF**kern: > = above
!!!RDF**kern: < = below
!!!EED: Andrzej Borzym
!!!EST: 2021-09-22
